X: 190
T: Bahar Meltemidir Başımda Esen
C: Emin Ongan
O: Turkey
F: http://compmusic.upf.edu/node/140
N: nihavent--fantezi--duyek--bahar_meltemidir--emin_ongan
N: makam= nihavent
N: form= fantezi
N: usul= duyek = 8/4
M: 8/4
L: 1/16
K: C _B _e  
Q: 1/4=144
%%MIDI tuningsystem comma53
g6 ^fe d8  | B2 c2 B2 c2 d8  | A4 A2 A2 A2 d2 B2 d2  | \
w:  ARANAĞME  |   |   | 
G8 .D4 .G4  | b6 ag ^f8  | 
w:   |   | 
d4 B2 c2 d8  | d4 d2 d2 d2 g2 d2 g2  | \
w:   |   | 
d8 d8  | c2 e4 ce g2 e2 d2 c2  | 
w:   |   | 
B2 d4 Bd g2 d2 B2 G2  | A2 c4 e2 d2 ^c2 d2 B2  | \
w:   |   | 
G2 d2 B2 d2 G8  | g6 ^fe d8  | 
w:   |  ARANAĞME  | 
B2 c2 B2 c2 d8  | A4 A2 A2 A2 d2 B2 d2  | \
w:   |   | 
G8 .D4 .G4  | b6 ag ^f8  | d4 B2 c2 d8  | 
w:   |   |   | 
d4 d2 d2 d2 g2 d2 g2  | d8 d8  | c2 e4 ce g2 e2 d2 c2  | \
w:   |   |   | 
B2 d4 Bd g2 d2 B2 G2  | 
w:   | 
A2 c4 e2 d2 ^c2 d2 B2  | G2 d2 B2 d2 G8  | \
w:   |   | 
^c2 d6 d4 d2 g2  | d14 c2  | c2 c4 B2 AB ce dc BA  | 
w:  Ba har  mel te mi  |  dir   |  ba şım *  *  *  *  *  da  *  e  | 
G8 .D4 .G4  | a2 b6 ag ^fe d2 f2  | e14 d2  | \
w:  sen   SAZ  |  Ba har  mel *  *  *  te mi  |  dir   | 
d2 d4 ^c2 B3A G2 G2  | d16  | 
w:  ba şım *  *  *  da  e  |  sen    | 
d2 ^f4 a2 c'6 ba  | g6 ed c8  | B6 B2 c4 ^c4  | d16  | \
w:  SAZ  |   |   |   | 
e2 e4 e2 e3d ^c2 d2  | 
w:  İ çim de  hâ *  *  tı  | 
e14 (3d^cd  | z2 d4 ^f2 a6 fe  | d16  | \
w:  ran   |  göz le rim de   |  sen    | 
c2 c4 c2 c6 c2  | c2 _3/4d2 c2 dc cB BA B4  | 
w:  İ çim de  hâ tı  |  ran   | 
z2 d4 d2 d2 ^c2 dc BA  | G16  | d2 ^f4 a2 c'6 ba  | \
w:  göz le rim *  *  *  de   |  sen    |  SAZ  | 
g6 ed c8  | d6 d2 e4 ^f4  | 
w:   |   | 
g16  | g4 z4 ^f4 g4  | z2 a4 c'2 b8  | b2 b4 b2 b2 a2 g2 ^f2  | a16  | \
w:   |  Sen  tat lı   |  şar kı sın   |  du dak ta  her   |  an    | 
z2 c'4 b2 a4 g4  | 
w:  Bir  i sim siz   | 
g2 d'6 c'b ag ^f4  | z2 ^f4 g2 f2 e2 d2 ^c2  | d16  | \
w:  pe ri   |  cen net te  *  ka  |  lan    | 
d2 ^f4 a2 c'6 ba  | 
w:  SAZ  | 
g6 ed c8  | z12  | B8B4  | c8^c4  | d12  | d12  | \
w:   |  |   |   |   |   | 
d8e2^f2  | g8z4  | ^f8g4  | a12  | a4b6a2  | 
w:  Sen  ye  |  şil   |  bir  de  |  niz   |  u za  | 
b2a2g4g4  | d'12  | d'8c'4  | c'8b4  | a12  | \
w:  yıp  *  *  gi  |  den    |   |  En  tat  |  lı   | 
g4a6g2  | ^f12  | ^f4g6f2  | g2^f2e4e2d2  | 
w:  e mel  |  sin   |  gö züm  |  de  *  *  tü  | 
d12  | d12  | d8e2^f2  | g8z4  | ^f8g4  | a12  | \
w:  ten    |   |  Sen  ye  |  şil   |  bir  de  |  niz   | 
a4b6a2  | b2a2g4g4  | d'12  | d'8c'4  | c'8b4  | 
w:  u za  |  yıp  *  *  gi  |  den    |   |  En  tat  | 
a12  | g4a6g2  | ^f12  | ^f4g6f2  | g2^f2e4e2d2  | d12  | d12  | \
w:  lı   |  e mel  |  sin   |  gö züm  |  de  *  *  tü  |  ten    |   | 
d4g8  | g12  | g4^f4g4  | 
w:  Ye şil   |  bir   |  kö şe  | 
a12  | a4b6a2  | b2a2g4g2^f2  | g12  | g8z4  | \
w:  dir   |  i çim  |  de  *  *  ye  |  rin    |   | 
g8^f2e2  | d12  | c4B4c4  | d12  | d4e8  | 
w:  Bir  der  |  yâ   |  bir  um  |  man   |  ye şil   | 
d8d4  | g12  | g8z4  | |


